X: 1
T: THE BOYNE HUNT -- REEL
B: Ryan's Mammoth Collection of Fiddle Tunes
R: reel
M: C|
L: 1/8
Z: Contributed 20010525024856 by John Chambers jc:trillian.mit.edu
K: D
vdB"^segno"[|]\
|:A2FA DAFA | DAFA BEEB | A2FA DAFA | Adde fddB \
| A2FA DAFA | DAFA BEEB | A2FA DAFA | Adde fddB :|
|:fdad bdad | fdad ceeg | fdad bdad | adde fddg \
| fdad bdad | fdad ceeg | fdec dBcA | Adde fddc "^segno"[|]:|
